docs/themes/v2/source/images/new/foot6.svg

<svg fill="none" height="16" viewBox="0 0 24 16" width="24" xmlns="http://www.w3.org/2000/svg"><path clip-rule="evenodd" d="m21.0794.46981c.9981.264201 1.776 1.04213 2.0402 2.02554.4844 1.7907.4991 5.5042.4991 5.5042s0 3.72815-.4844 5.50415c-.2642.9835-1.1889 1.7907-2.187 2.0549-1.8054.4697-8.8948.4404-8.8948.4404s-7.08939.044-8.89477-.4404c-.98341-.2642-1.95215-1.0714-2.216352-2.0549-.484369-1.7907-.440336-5.50415-.440336-5.50415s-.044033-3.7135.440336-5.5042c.264202-.98341 1.218262-1.790695 2.216352-2.054896 1.80538-.4696914 8.89477-.44033573 8.89477-.44033573s7.2215 0 9.0269.46969173zm-5.4749 7.52974-5.76835 3.55205v-7.10409z" fill="#000" fill-opacity=".4" fill-rule="evenodd"/></svg>

<svg width="24" height="16" viewBox="0 0 24 16" fill="none" xmlns="http://www.w3.org/2000/svg">
<path fill-rule="evenodd" clip-rule="evenodd" d="M21.0794 0.46981C22.0775 0.734011 22.8554 1.51194 23.1196 2.49535C23.604 4.28605 23.6187 7.99955 23.6187 7.99955C23.6187 7.99955 23.6187 11.7277 23.1343 13.5037C22.8701 14.4872 21.9454 15.2944 20.9473 15.5586C19.1419 16.0283 12.0525 15.999 12.0525 15.999C12.0525 15.999 4.96311 16.043 3.15773 15.5586C2.17432 15.2944 1.20558 14.4872 0.941378 13.5037C0.457009 11.713 0.501042 7.99955 0.501042 7.99955C0.501042 7.99955 0.457009 4.28605 0.941378 2.49535C1.20558 1.51194 2.15964 0.704655 3.15773 0.440454C4.96311 -0.0292374 12.0525 0.000118273 12.0525 0.000118273C12.0525 0.000118273 19.274 0.000118273 21.0794 0.46981ZM15.6045 7.99955L9.83615 11.5516V4.44751L15.6045 7.99955Z" fill="black" fill-opacity="0.4"/>
</svg>
